packages/ffe-icons/icons/open/300/sm/robot.svg

<svg xmlns="http://www.w3.org/2000/svg" height="20" viewBox="0 -960 960 960" width="20"><path d="M228.309-164.001q-26.623 0-45.465-18.843-18.843-18.842-18.843-45.465V-624q0-71.538 50.231-121.768 50.23-50.231 121.768-50.231h288q71.538 0 121.768 50.231 50.231 50.23 50.231 121.768v395.691q0 26.623-18.843 45.465-18.842 18.843-45.465 18.843H228.309Zm0-51.999h503.382q5.385 0 8.847-3.462 3.462-3.462 3.462-8.847V-624q0-49.5-35.25-84.75T624-744H336q-49.5 0-84.75 35.25T216-624v395.691q0 5.385 3.462 8.847 3.462 3.462 8.847 3.462Zm131.479-274.001q-25.942 0-43.864-18.135-17.923-18.135-17.923-44.076 0-25.942 18.135-43.864 18.135-17.923 44.076-17.923 25.942 0 43.864 18.135 17.923 18.135 17.923 44.076 0 25.942-18.135 43.864-18.135 17.923-44.076 17.923Zm240 0q-25.942 0-43.864-18.135-17.923-18.135-17.923-44.076 0-25.942 18.135-43.864 18.135-17.923 44.076-17.923 25.942 0 43.864 18.135 17.923 18.135 17.923 44.076 0 25.942-18.135 43.864-18.135 17.923-44.076 17.923ZM298.001-216v-69.905q0-26.71 18.842-45.402t45.465-18.692h235.384q26.623 0 45.465 18.842 18.842 18.842 18.842 45.465V-216h-51.998v-69.692q0-5.385-3.462-8.847-3.462-3.462-8.847-3.462h-91.693V-216h-51.998v-82.001h-91.693q-5.385 0-8.847 3.462-3.462 3.462-3.462 8.847V-216h-51.998Zm-69.692 0H744 216h12.309Z"/></svg>

<svg xmlns="http://www.w3.org/2000/svg" height="20" viewBox="0 -960 960 960" width="20"><path d="M228.31-164q-26.62 0-45.47-18.84Q164-201.69 164-228.31V-624q0-71.54 50.23-121.77Q264.46-796 336-796h288q71.54 0 121.77 50.23Q796-695.54 796-624v395.69q0 26.62-18.84 45.47Q758.31-164 731.69-164H228.31Zm0-52h503.38q5.39 0 8.85-3.46t3.46-8.85V-624q0-49.5-35.25-84.75T624-744H336q-49.5 0-84.75 35.25T216-624v395.69q0 5.39 3.46 8.85t8.85 3.46Zm131.48-274q-25.94 0-43.87-18.14Q298-526.27 298-552.21t18.14-43.87Q334.27-614 360.21-614t43.87 18.14Q422-577.73 422-551.79t-18.14 43.87Q385.73-490 359.79-490Zm240 0q-25.94 0-43.87-18.14Q538-526.27 538-552.21t18.14-43.87Q574.27-614 600.21-614t43.87 18.14Q662-577.73 662-551.79t-18.14 43.87Q625.73-490 599.79-490ZM298-216v-69.9q0-26.71 18.84-45.41Q335.68-350 362.31-350h235.38q26.63 0 45.47 18.84T662-285.69V-216h-52v-69.69q0-5.39-3.46-8.85t-8.85-3.46H506v82h-52v-82h-91.69q-5.39 0-8.85 3.46t-3.46 8.85V-216h-52Zm-69.69 0H744 216 228.31Z"/></svg>
